X:1
T: Heather Bells
C:
R:Strathspey
Q: 128
K:D
M:4/4
L:1/16
|:A,4|DD3 F3E D4 F3G|A3F B3F A3F Ad3|DD3 F3E D4 F3G|A3B A3F E4A,4|
DD3 F3E D4 F3G|A3F B3F A3F Ad3|DD3 F3E D4 F3G|A3B A3F E4A4|
dd3 f3e d3c B3A|BB3 d3B A3G F3E|DD3 F3A d3c d3e|fa3 e3f d4-d2A2|
dd3 f3e d3c B3A|BB3 d3B A3G F3E|DD3 F3A d3c d3e|fa3 e3f d4:|
